resources/svg/bottom-left-o.svg

<svg width="15" height="15" viewBox="0 0 15 15" fill="none" xmlns="http://www.w3.org/2000/svg">
<path d="M1.5 13.5H1C1 13.7761 1.22386 14 1.5 14V13.5ZM1.5 14H6.99999V13H1.5V14ZM2 13.5V8H1V13.5H2ZM1.85355 13.8536L13.8535 1.85355L13.1464 1.14645L1.14645 13.1464L1.85355 13.8536Z" fill="black"/>
</svg>

<svg viewBox="0 0 15 15" fill="none" xmlns="http://www.w3.org/2000/svg" fill="currentColor"><path d="M1.5 13.5H1a.5.5 0 00.5.5v-.5zm0 .5H7v-1H1.5v1zm.5-.5V8H1v5.5h1zm-.146.354l12-12-.708-.708-12 12 .708.708z" fill="currentColor"/></svg>
